X:1
T:[ID 2-95]
T:[ID 2-95]
T:Bezeichnung standardisiert: Tantz Tantz
T:Urheber unbekannt Datum in der hier transkribierten schriftlichen Quelle: 1767
C:Urheber unbekannt
C:Datum in der hier transkribierten schriftlichen Quelle: 1767
L:1/8
M:2/4
K:D
V:1 treble 
V:1
 aaaa | a2 ^d2 | (gg)(ee) | dddf | gg e/f/e/c/ | d2 D2 :: efge | fg a2 | efge | fgag | %10
 fe/d/ e/g/e/c/ | d2 D2 :| %12

